X:1
T:Title
%%score ( 1 2 3 ) { ( 4 6 ) | 5 }
L:1/8
Q:1/4=83
M:3/4
K:F
V:1 treble nm="Drawbar Organ, Soprano"
V:2 treble 
V:3 treble 
V:4 bass nm="Drawbar Organ, Here and Yonder"
V:6 bass 
V:5 bass 
V:1
 CC F A3 | FF- F/D/ C3 | FF A [FAc]3 | AG- G/F/ G3 | CC F A3 | FF- F/D/ C3 | FF Ac BG- | G2 A F3 | %8
w: By~E.L.~Tussing * * *||||||||
 z2 z B3 | z F z =C z A- | A z z c3 | z G z G3 | CC [CF] [CA]3 | [^CF][DF]- [DF]/[B,D]/ [A,=C]3 | %14
w: ||||||
 [CF][CF] [FA][_Ec] [DB][=EG]- | [EG]2 [EA] [CF]3- | [CF]4 z2 |] %17
w: |||
V:2
 x6 | x6 | x6 | x6 | x6 | x6 | x6 | x6 | FF FD DD | D^C- [CB].A- .[FA]2 | CF AF .F2 | %11
 AD- [DF]E FC | x6 | x6 | x6 | x6 | x6 |] %17
V:3
 x6 | x6 | x6 | x6 | x6 | x6 | x6 | x6 | x6 | x6 | z2 z2 z F- | F z z2 z2 | x6 | x6 | x6 | x6 | %16
 x6 |] %17
V:4
 A,A, A, .C3 | ^CD- D/B,/ A,3 | z2 z A,3 | z2 z _B,3 | A,A, A,[K:treble] C3 | ^CD- D/B,/ A,3 | %6
 z2 z[K:bass] _E DB,- | B,2 C A,3 | z2 z F, F,F,- | F, F,2 F, A,[K:treble]C- | %10
 CA, CA,[K:bass] A,A,- | A, =B,2 C B,_B, | A,A, A, F,3 | F,F,- F,/F,/ F,3 | A,A, CF, F,B,- | %15
 B,2 C A,3- | A,4 z2 |] %17
V:5
 z2 z F,, C,F, | A,,B,,- B,,/D,/F, C,F,, | A,A, CF,, C,F,- | F, [G,,F,]2 [C,E,] D,C, | %4
 z2 z A,, C,F, | A,,B,,- B,,/D,/F, C,F,, | A,A, C^F,, G,,C,- | C,3 F, C,F,, | z2 z B,, B,,B,,- | %9
 B,, .B,,3 F,F,- | F, F,2 F, F,F,- | F, G,2 C, D,E, | F,F, .F,2 z2 | A,,B,,- B,,<.D, z2 | %14
 F,F, F,A,, B,,C,- | C,2 C, F,3- | F,4 z2 |] %17
V:6
 x6 | x6 | x6 | C=B,- B,<.B, F,E, | x3[K:treble] x3 | x6 | x3[K:bass] x3 | x6 | x6 | %9
 x5[K:treble] x | x4[K:bass] x2 | x6 | x6 | x6 | x6 | x6 | x6 |] %17

